!!!COM: Corelli, Arcangelo
!!!OTL: 
!!!ONM: Opus 5, No. 7
!!!OMV: 1
!!!CDT: 1653/2/17/-1713/1/8/
!!!OCY: Italia
**kern	**kern
*clefC	*clefG
*k[]	*k[]
*C:	*C:
*M4/4	*M4/4
2..r	2..r
8r	8A
=1	=1
4.r	8d
.	8f
.	8e
8AA	8a
8D	8f
8F	4dd
8E	.
8A	8cc#
=2	=2
8F	8dd
4d	8ff
.	8ee
8c#	8aa
8d	8ff
8c	8a
4B-	4dd
=3	=3
8AA	4cc#
8BB	.
8C#	8r
8AA	8aa
4D	8ff
.	8aa
8r	8dd
8d	8ff#
=4	=4
8B-	8gg
8d	8g
8G	8r
8B	16gg
.	16ff
8c	8ee
8C	8gg
8r	8cc
16c	8ee
16B-	.
=5	=5
8A	8ff
8c	8f
8F	8r
8A	8cc
8B-	8dd
8BB-	8d
8r	8c
8c	8cc
=6	=6
8d	8b-
8D	8B-
8C	8A
8c	8a
8B-	8dd
8BB-	8g
8AA	8cc
8A	8f
=7	=7
8G	8b-
8F	16cc
.	16a
8c	4g
8C	.
4F	8f
.	8cc
8r	8ff
8F	16ee
.	16ff
=8	=8
8B-	8dd
16A	8dd
16B-	.
8G	4gg
8G	.
4c	8r
.	8g
8r	8cc
8C	8ee
=9	=9
8F	8a
8A	16b-
.	16cc
8D	4f
16E	.
16F	.
4BB-	8r
.	8d
8r	8g
8GG	8b-
=10	=10
8C	8e
8E	16f
.	16g
8AA	4c
16BB-	.
16C	.
4FF	8r
.	8a
8r	8dd
8D	8ff
=11	=11
8G	8b-
8B-	8dd
8E	4g
8G	.
4C#	8r
.	8a
4D	8f
.	8A
=12	=12
2BB-	2d
4.AA	4.c#
8r	8ee
=13	=13
8r	4.aa
8A	.
4.d	.
.	8aa
.	8ff
8d	8dd
8B-	[4gg
8G	.
=14	=14
4.c	8gg]
.	16gg
.	16ff
.	8ee
16c	8gg
16B-	.
8A	4.ccc
8c	.
[4f	.
.	8ccc
=15	=15
8f]	8aa
8f	16bb-
.	16ccc
8d	4.ff
16e	.
16f	.
4.B-	.
.	8dd
.	[4gg
8G	.
=16	=16
4.c	8gg]
.	16gg
.	16ff
.	8ee
16c	8cc
16B-	.
8A	4.ff
8F	.
[4B-	.
.	8dd
=17	=17
8B-]	8gg
8G	16ff
.	16ee
8c	4.aa
16B-	.
16A	.
4.d	.
.	16gg
.	16ff
.	[4bb-
16c	.
16B-	.
=18	=18
8e	8bb-]
8c	8ccc
8f	8aa
8B-	8gg
2c	4aa
.	[4cc
=19	=19
4.F	8cc]
.	16b-
.	16cc
.	8a
16E	8cc
16F	.
8D	4.dd
8F	.
[4G	.
.	8cc
=20	=20
8G]	8b
8F	8dd
8E	4.ee
8G	.
4.A	.
.	16dd
.	16ee
.	8cc#
16G	8ee
16A	.
=21	=21
8F	4.aa
8A	.
4.d	.
.	8gg
.	8ff
8c	8a
8B-	[4dd
8D	.
=22	=22
4.G	8dd]
.	8cc
.	8b-
8F	8d
4E-	4.g
4D	.
.	8f
=23	=23
4G	4e-
2GG	4d
.	8c#
.	8A
8FF	4d
8GG	.
=24	=24
2AA	4.d
.	8c#
4.DD	4.d
8r	8r
==	==
*-	*-
!!!RWG: This file only contains pitch and duration data.
!!!RWG: Transposing instruments are not transposed.
!!!RWG: Durations of rests and tied notes may be interpreted.
!!!RWG: Key is interpreted using the Humdrum key tool.
!!!SCA: 
!!!YOR: 
!!!AGN: violin
!!!AFT: stage1
!!!ENC: F. Bennion
!!!END: 1997/04/15
!!!AST: baroque
!!!YEC: Copyright 1994, Center for Computer Assisted Research in the Humanities
!!!YEM: Rights to all derivative electronic formats reserved.
!!!YEM: Refer to licensing agreement for further details.
!!!YEN: United States of America
!!!EED: W.B. Hewlett
!!!KEY: 942711261
!!!EMD: Converted from MuseData to Humdrum Aug 9, 1999, by Bret Aarden using muse2kern.
!!!VTS: 53700178
